!!!OTL: RINGEL RINGEL REIHE
!!!ARE: Europa, Mitteleuropa, Deutschland, Thueringen; Franken
!!!SCT: E1870
!!!YEM: Copyright 1995, estate of Helmut Schaffrath.
**kern
*ICvox
*Ivox
*M2/4
*k[b-]
*F:
=1
{8cc
8cc
8dd
8dd
=2
4cc
4a}
=3
{8cc
8cc
8dd
8dd
=4
4cc
4a}
=5
{8cc
8cc
8dd
8dd
=6
8cc
8cc
4a}
=7
{8dd
8cc
8b-
8a
=8
8g
8g
4f}
==
!!!AGN: Kinder - Lied, Tanz, Ringelreihen
!!!ONB: ESAC (Essen Associative Code) Database: ERK3
!!!AMT: simple duple
!!!AIN: vox
!!!EED: Helmut Schaffrath
!!!EEV: 1.0
*-
